src/pos-icons/redo-variant.svg

<svg height="24" viewBox="0 0 24 24" width="24" xmlns="http://www.w3.org/2000/svg"><path d="m10.5 7a6.5 6.5 0 0 0 -6.5 6.5 6.5 6.5 0 0 0 6.5 6.5h3.5v-2h-3.5c-2.5 0-4.5-2-4.5-4.5s2-4.5 4.5-4.5h5.67l-3.08 3.09 1.41 1.41 5.5-5.5-5.5-5.5-1.42 1.41 3.09 3.09zm7.5 11h-2v2h2z"/></svg>

<?xml version="1.0" encoding="UTF-8"?><!DOCTYPE svg PUBLIC "-//W3C//DTD SVG 1.1//EN" "http://www.w3.org/Graphics/SVG/1.1/DTD/svg11.dtd"><svg xmlns="http://www.w3.org/2000/svg" xmlns:xlink="http://www.w3.org/1999/xlink" version="1.1" id="mdi-redo-variant" width="24" height="24" viewBox="0 0 24 24"><path d="M10.5,7A6.5,6.5 0 0,0 4,13.5A6.5,6.5 0 0,0 10.5,20H14V18H10.5C8,18 6,16 6,13.5C6,11 8,9 10.5,9H16.17L13.09,12.09L14.5,13.5L20,8L14.5,2.5L13.08,3.91L16.17,7H10.5M18,18H16V20H18V18Z" /></svg>
